assets/img/icon-email-black.svg

<?xml version="1.0" encoding="UTF-8" standalone="no" ?>
<!DOCTYPE svg PUBLIC "-//W3C//DTD SVG 1.1//EN" "http://www.w3.org/Graphics/SVG/1.1/DTD/svg11.dtd">
<svg xmlns="http://www.w3.org/2000/svg" xmlns:xlink="http://www.w3.org/1999/xlink" version="1.1" width="1080" height="1080" viewBox="0 0 1080 1080" xml:space="preserve">
<desc>Created with Fabric.js 5.2.4</desc>
<defs>
</defs>
<rect x="0" y="0" width="100%" height="100%" fill="transparent"></rect>
<g transform="matrix(1 0 0 1 540 540)" id="28618946-a96d-4ca5-bb35-df5f3bc1d39a"  >
</g>
<g transform="matrix(1 0 0 1 540 540)" id="4eeb23a6-b6f5-4b14-8017-3ed9375e18a5"  >
<rect style="stroke: none; stroke-width: 1; stroke-dasharray: none; stroke-linecap: butt; stroke-dashoffset: 0; stroke-linejoin: miter; stroke-miterlimit: 4; fill: rgb(255,255,255); fill-rule: nonzero; opacity: 1; visibility: hidden;" vector-effect="non-scaling-stroke"  x="-540" y="-540" rx="0" ry="0" width="1080" height="1080" />
</g>
<g transform="matrix(1 0 0 1 541.65 449.94)"  >
<path style="stroke: none; stroke-width: 1; stroke-dasharray: none; stroke-linecap: butt; stroke-dashoffset: 0; stroke-linejoin: miter; stroke-miterlimit: 4; fill: rgb(0,123,255); fill-rule: nonzero; opacity: 1;" vector-effect="non-scaling-stroke"  transform=" translate(-426.83, -336.86)" d="M 534.94 399.09 L 564.6400000000001 396.35999999999996 Q 553.3000000000001 425.93999999999994 525.9200000000001 444.61999999999995 Q 494.57 466.06 447 470.43 Q 401 474.66 366.12 462.19 Q 331.24 449.71999999999997 312.12 420.90999999999997 C 299.3576507237101 401.6326311993283 291.66052615380767 379.44922928875155 289.74 356.40999999999997 C 287.241658338321 330.91489552295275 291.3143807318123 305.2047595680981 301.57 281.72999999999996 Q 316.99 246.21999999999997 347.64 226.31999999999996 Q 378.28999999999996 206.41999999999996 419.64 202.61999999999998 Q 454.77 199.37999999999997 483.34999999999997 210.52999999999997 Q 511.92999999999995 221.67999999999998 528.66 245.52999999999997 C 539.8086416302214 261.36744051939115 546.5360661807329 279.8894313547142 548.15 299.1899999999999 Q 551.42 334.73999999999995 532.15 365.4599999999999 Q 508.03 404.2399999999999 465.09 408.17999999999995 Q 453.53 409.23999999999995 447.29999999999995 405.73999999999995 C 443.0432014743684 403.2766228098674 439.86681797093456 399.30435894546076 438.4 394.60999999999996 Q 423.4 412.00999999999993 401.95 413.98999999999995 Q 378.8 416.11999999999995 362.08 401.55999999999995 Q 345.35999999999996 386.99999999999994 342.90999999999997 360.55999999999995 C 340.7947012332652 339.2218147348992 345.2986162767 317.7496616208495 355.80999999999995 299.05999999999995 Q 375.0799999999999 264.12999999999994 409.93999999999994 260.90999999999997 Q 434.74999999999994 258.63 448.3399999999999 276.49999999999994 L 450.3999999999999 260.7099999999999 L 487.19999999999993 257.31999999999994 L 475.46 359.15 Q 474.38 368.81 474.64 371.59999999999997 C 474.6713893546213 373.4943307012565 475.41383965292806 375.3076227759673 476.71999999999997 376.67999999999995 C 477.78673975978705 377.7046311268157 479.2477415139944 378.21232923640275 480.71999999999997 378.06999999999994 Q 487.40999999999997 377.4599999999999 497.26 368.38999999999993 Q 510.51 356.49999999999994 517.64 337.8399999999999 C 522.3339165562543 325.8471266065485 524.1690934760032 312.9255637424949 523 300.1 Q 519.88 265.8 492.94 245 Q 466 224.2 421.53999999999996 228.3 Q 383.77 231.77 358.90999999999997 249.59 C 342.5096536066429 261.2407277492291 330.08282363224157 277.64693586150054 323.30999999999995 296.59000000000003 C 316.199728900185 315.5407495712539 313.46491923045755 335.85354839315454 315.30999999999995 356.0100000000001 C 316.84413064838816 374.91567897413154 323.6944844663053 393.00186109360203 335.06999999999994 408.18 C 346.2619260242576 423.21853021336585 362.02609454572075 434.22502846661087 380 439.55 Q 407.86 448.16 442.42 444.98 Q 475.74 441.92 498.86 430.45000000000005 Q 521.98 418.9800000000001 534.94 399.09 Z M 379 355.65 Q 380.63 373.37 388.58 381.06 C 393.4025610875316 386.0252714082746 400.2353066268726 388.50555066824035 407.12 387.79 C 412.34969138174665 387.32512162111334 417.3679402389418 385.50531709048215 421.68 382.51000000000005 C 425.4739166312357 379.89445864289115 428.7437497816562 376.5907060614496 431.32 372.77000000000004 Q 437.94 363.59000000000003 441.8 346.77000000000004 Q 445.66 329.95000000000005 444.37 315.89000000000004 Q 442.91 300.14000000000004 434.82 292.38000000000005 C 429.76555176250145 287.324769071365 422.6834359238171 284.8475009011807 415.58 285.65000000000003 Q 403.58 286.74 394.27 296.96000000000004 Q 384.96 307.18000000000006 381.37 324.78000000000003 Q 377.78 342.42 379 355.65 Z" stroke-linecap="round" />
</g>
<g transform="matrix(1 0 0 1 540 540)"  >
<path style="stroke: none; stroke-width: 1; stroke-dasharray: none; stroke-linecap: butt; stroke-dashoffset: 0; stroke-linejoin: miter; stroke-miterlimit: 4; fill: rgb(0,0,0); fill-rule: nonzero; opacity: 1;" vector-effect="non-scaling-stroke"  transform=" translate(-425.18, -426.91)" d="M 850.36 819 C 850.36 818.15 850.36 817.29 850.36 816.4 L 850.36 298.16 L 783.07 249.87000000000003 L 772.07 75.36000000000004 L 557.56 88.07 L 454.79 14.34 C 452.63 12.7 434.59000000000003 0.03999999999999915 412.02000000000004 14.84 C 407.85 17.58 365.19000000000005 47.45 285.22 103.62 L 285.62 104.18 L 45.22 118.43 L 54.56 265.77 L 0.06 304.11 L 0.06 816.2 L 0 816.2 L 0.06 819 L 0.06 820.93 L 0.13 820.93 C 1.01 833.12 10.360000000000001 845.78 24.75 845.78 L 825.36 846.0899999999999 L 825.65 846.0899999999999 L 825.9399999999999 846.0899999999999 C 834.0899999999999 845.3899999999999 848.7199999999999 839.16 850.2499999999999 820.9499999999999 L 850.3599999999999 820.9499999999999 Z M 787.12 314.41 L 822.92 314.41 L 788.6899999999999 339.56 Z M 836.81 321 L 836.81 802.28 L 522.36 552.15 Z M 830.8699999999999 300.83 L 786.2699999999999 300.83 L 784.1599999999999 267.32 Z M 419.46 26.17 C 434.60999999999996 16.230000000000004 446.09999999999997 24.76 446.53 25.080000000000002 L 536.0799999999999 89.34 L 310.0799999999999 102.74000000000001 C 378.91 54.39 415.71 28.64 419.46 26.17 Z M 759.46 89.69 L 775.73 349.11 L 511.37 543.41 L 447.74 492.78999999999996 C 446.98 492.17999999999995 428.74 478.04999999999995 405.67 493.15 C 402.49 495.22999999999996 377.75 514.6999999999999 341.94 543.15 L 73.33 347.64 L 59.6 131.16 Z M 13.61 805.34 L 13.61 320.94 L 330.92 551.87 C 230.38 631.77 59.32 768.73 13.61 805.34 Z M 59.09 337.28 L 27.66 314.41 L 57.66 314.41 Z M 56.78 300.84999999999997 L 28.25 300.84999999999997 L 55.56 281.63 Z M 825 832.53 L 24.75999999999999 832.2099999999999 C 19.32999999999999 832.2099999999999 15.28999999999999 827.55 14.03999999999999 822.3799999999999 L 29.039999999999992 810.3799999999999 L 44 810.3799999999999 L 44 798.3799999999999 C 183.78 686.4399999999998 404 510.3799999999999 413.08 504.5099999999999 L 413.08 504.5099999999999 C 427.5 495.0599999999999 438.16999999999996 502.57999999999987 439.28 503.4199999999999 L 808.46 797.05 L 796.33 797.05 L 796.33 810.3399999999999 L 813.82 810.3399999999999 L 813.82 801.3399999999999 L 836.7600000000001 819.5899999999999 C 835.86 830.4 827.27 832.24 825 832.53 Z" stroke-linecap="round" />
</g>
<g transform="matrix(1 0 0 1 325.04 916.78)"  >
<rect style="stroke: none; stroke-width: 1; stroke-dasharray: none; stroke-linecap: butt; stroke-dashoffset: 0; stroke-linejoin: miter; stroke-miterlimit: 4; fill: rgb(0,0,0); fill-rule: nonzero; opacity: 1;" vector-effect="non-scaling-stroke"  x="-8.75" y="-6.645" rx="0" ry="0" width="17.5" height="13.29" />
</g>
<g transform="matrix(1 0 0 1 290.05 916.78)"  >
<rect style="stroke: none; stroke-width: 1; stroke-dasharray: none; stroke-linecap: butt; stroke-dashoffset: 0; stroke-linejoin: miter; stroke-miterlimit: 4; fill: rgb(0,0,0); fill-rule: nonzero; opacity: 1;" vector-effect="non-scaling-stroke"  x="-8.75" y="-6.645" rx="0" ry="0" width="17.5" height="13.29" />
</g>
<g transform="matrix(1 0 0 1 255.06 916.78)"  >
<rect style="stroke: none; stroke-width: 1; stroke-dasharray: none; stroke-linecap: butt; stroke-dashoffset: 0; stroke-linejoin: miter; stroke-miterlimit: 4; fill: rgb(0,0,0); fill-rule: nonzero; opacity: 1;" vector-effect="non-scaling-stroke"  x="-8.75" y="-6.645" rx="0" ry="0" width="17.5" height="13.29" />
</g>
<g transform="matrix(1 0 0 1 185.07 916.78)"  >
<rect style="stroke: none; stroke-width: 1; stroke-dasharray: none; stroke-linecap: butt; stroke-dashoffset: 0; stroke-linejoin: miter; stroke-miterlimit: 4; fill: rgb(0,0,0); fill-rule: nonzero; opacity: 1;" vector-effect="non-scaling-stroke"  x="-8.75" y="-6.645" rx="0" ry="0" width="17.5" height="13.29" />
</g>
<g transform="matrix(1 0 0 1 220.07 916.78)"  >
<rect style="stroke: none; stroke-width: 1; stroke-dasharray: none; stroke-linecap: butt; stroke-dashoffset: 0; stroke-linejoin: miter; stroke-miterlimit: 4; fill: rgb(0,0,0); fill-rule: nonzero; opacity: 1;" vector-effect="non-scaling-stroke"  x="-8.75" y="-6.645" rx="0" ry="0" width="17.5" height="13.29" />
</g>
<g transform="matrix(1 0 0 1 360.03 916.78)"  >
<rect style="stroke: none; stroke-width: 1; stroke-dasharray: none; stroke-linecap: butt; stroke-dashoffset: 0; stroke-linejoin: miter; stroke-miterlimit: 4; fill: rgb(0,0,0); fill-rule: nonzero; opacity: 1;" vector-effect="non-scaling-stroke"  x="-8.75" y="-6.645" rx="0" ry="0" width="17.5" height="13.29" />
</g>
<g transform="matrix(1 0 0 1 534.99 916.78)"  >
<rect style="stroke: none; stroke-width: 1; stroke-dasharray: none; stroke-linecap: butt; stroke-dashoffset: 0; stroke-linejoin: miter; stroke-miterlimit: 4; fill: rgb(0,0,0); fill-rule: nonzero; opacity: 1;" vector-effect="non-scaling-stroke"  x="-8.75" y="-6.645" rx="0" ry="0" width="17.5" height="13.29" />
</g>
<g transform="matrix(1 0 0 1 744.94 916.78)"  >
<rect style="stroke: none; stroke-width: 1; stroke-dasharray: none; stroke-linecap: butt; stroke-dashoffset: 0; stroke-linejoin: miter; stroke-miterlimit: 4; fill: rgb(0,0,0); fill-rule: nonzero; opacity: 1;" vector-effect="non-scaling-stroke"  x="-8.75" y="-6.645" rx="0" ry="0" width="17.5" height="13.29" />
</g>
<g transform="matrix(1 0 0 1 674.96 916.78)"  >
<rect style="stroke: none; stroke-width: 1; stroke-dasharray: none; stroke-linecap: butt; stroke-dashoffset: 0; stroke-linejoin: miter; stroke-miterlimit: 4; fill: rgb(0,0,0); fill-rule: nonzero; opacity: 1;" vector-effect="non-scaling-stroke"  x="-8.75" y="-6.645" rx="0" ry="0" width="17.5" height="13.29" />
</g>
<g transform="matrix(1 0 0 1 709.95 916.78)"  >
<rect style="stroke: none; stroke-width: 1; stroke-dasharray: none; stroke-linecap: butt; stroke-dashoffset: 0; stroke-linejoin: miter; stroke-miterlimit: 4; fill: rgb(0,0,0); fill-rule: nonzero; opacity: 1;" vector-effect="non-scaling-stroke"  x="-8.75" y="-6.645" rx="0" ry="0" width="17.5" height="13.29" />
</g>
<g transform="matrix(1 0 0 1 779.93 916.78)"  >
<rect style="stroke: none; stroke-width: 1; stroke-dasharray: none; stroke-linecap: butt; stroke-dashoffset: 0; stroke-linejoin: miter; stroke-miterlimit: 4; fill: rgb(0,0,0); fill-rule: nonzero; opacity: 1;" vector-effect="non-scaling-stroke"  x="-8.75" y="-6.645" rx="0" ry="0" width="17.5" height="13.29" />
</g>
<g transform="matrix(1 0 0 1 814.92 916.78)"  >
<rect style="stroke: none; stroke-width: 1; stroke-dasharray: none; stroke-linecap: butt; stroke-dashoffset: 0; stroke-linejoin: miter; stroke-miterlimit: 4; fill: rgb(0,0,0); fill-rule: nonzero; opacity: 1;" vector-effect="non-scaling-stroke"  x="-8.75" y="-6.645" rx="0" ry="0" width="17.5" height="13.29" />
</g>
<g transform="matrix(1 0 0 1 884.91 916.78)"  >
<rect style="stroke: none; stroke-width: 1; stroke-dasharray: none; stroke-linecap: butt; stroke-dashoffset: 0; stroke-linejoin: miter; stroke-miterlimit: 4; fill: rgb(0,0,0); fill-rule: nonzero; opacity: 1;" vector-effect="non-scaling-stroke"  x="-8.75" y="-6.645" rx="0" ry="0" width="17.5" height="13.29" />
</g>
<g transform="matrix(1 0 0 1 849.91 916.78)"  >
<rect style="stroke: none; stroke-width: 1; stroke-dasharray: none; stroke-linecap: butt; stroke-dashoffset: 0; stroke-linejoin: miter; stroke-miterlimit: 4; fill: rgb(0,0,0); fill-rule: nonzero; opacity: 1;" vector-effect="non-scaling-stroke"  x="-8.75" y="-6.645" rx="0" ry="0" width="17.5" height="13.29" />
</g>
<g transform="matrix(1 0 0 1 639.96 916.78)"  >
<rect style="stroke: none; stroke-width: 1; stroke-dasharray: none; stroke-linecap: butt; stroke-dashoffset: 0; stroke-linejoin: miter; stroke-miterlimit: 4; fill: rgb(0,0,0); fill-rule: nonzero; opacity: 1;" vector-effect="non-scaling-stroke"  x="-8.75" y="-6.645" rx="0" ry="0" width="17.5" height="13.29" />
</g>
<g transform="matrix(1 0 0 1 465.01 916.78)"  >
<rect style="stroke: none; stroke-width: 1; stroke-dasharray: none; stroke-linecap: butt; stroke-dashoffset: 0; stroke-linejoin: miter; stroke-miterlimit: 4; fill: rgb(0,0,0); fill-rule: nonzero; opacity: 1;" vector-effect="non-scaling-stroke"  x="-8.75" y="-6.645" rx="0" ry="0" width="17.5" height="13.29" />
</g>
<g transform="matrix(1 0 0 1 500 916.78)"  >
<rect style="stroke: none; stroke-width: 1; stroke-dasharray: none; stroke-linecap: butt; stroke-dashoffset: 0; stroke-linejoin: miter; stroke-miterlimit: 4; fill: rgb(0,0,0); fill-rule: nonzero; opacity: 1;" vector-effect="non-scaling-stroke"  x="-8.75" y="-6.645" rx="0" ry="0" width="17.5" height="13.29" />
</g>
<g transform="matrix(1 0 0 1 430.02 916.78)"  >
<rect style="stroke: none; stroke-width: 1; stroke-dasharray: none; stroke-linecap: butt; stroke-dashoffset: 0; stroke-linejoin: miter; stroke-miterlimit: 4; fill: rgb(0,0,0); fill-rule: nonzero; opacity: 1;" vector-effect="non-scaling-stroke"  x="-8.75" y="-6.645" rx="0" ry="0" width="17.5" height="13.29" />
</g>
<g transform="matrix(1 0 0 1 395.02 916.78)"  >
<rect style="stroke: none; stroke-width: 1; stroke-dasharray: none; stroke-linecap: butt; stroke-dashoffset: 0; stroke-linejoin: miter; stroke-miterlimit: 4; fill: rgb(0,0,0); fill-rule: nonzero; opacity: 1;" vector-effect="non-scaling-stroke"  x="-8.75" y="-6.645" rx="0" ry="0" width="17.5" height="13.29" />
</g>
<g transform="matrix(1 0 0 1 604.97 916.78)"  >
<rect style="stroke: none; stroke-width: 1; stroke-dasharray: none; stroke-linecap: butt; stroke-dashoffset: 0; stroke-linejoin: miter; stroke-miterlimit: 4; fill: rgb(0,0,0); fill-rule: nonzero; opacity: 1;" vector-effect="non-scaling-stroke"  x="-8.75" y="-6.645" rx="0" ry="0" width="17.5" height="13.29" />
</g>
<g transform="matrix(1 0 0 1 569.98 916.78)"  >
<rect style="stroke: none; stroke-width: 1; stroke-dasharray: none; stroke-linecap: butt; stroke-dashoffset: 0; stroke-linejoin: miter; stroke-miterlimit: 4; fill: rgb(0,0,0); fill-rule: nonzero; opacity: 1;" vector-effect="non-scaling-stroke"  x="-8.75" y="-6.645" rx="0" ry="0" width="17.5" height="13.29" />
</g>
<g transform="matrix(NaN NaN NaN NaN 0 0)"  >
<g style=""   >
</g>
</g>
<g transform="matrix(NaN NaN NaN NaN 0 0)"  >
<g style=""   >
</g>
</g>
</svg>

<svg xmlns="http://www.w3.org/2000/svg" viewBox="0 0 850.39 850.39"><g id="ICONS"><path d="M534.94,399.09l29.7-2.73q-11.34,29.58-38.72,48.26Q494.57,466.06,447,470.43q-46,4.23-80.88-8.24t-54-41.28a137.54,137.54,0,0,1-22.38-64.5,150,150,0,0,1,11.83-74.68q15.42-35.51,46.07-55.41t72-23.7q35.13-3.24,63.71,7.91t45.31,35a109,109,0,0,1,19.49,53.66q3.27,35.55-16,66.27-24.12,38.78-67.06,42.72-11.56,1.06-17.79-2.44a19.62,19.62,0,0,1-8.9-11.13q-15,17.4-36.45,19.38-23.15,2.13-39.87-12.43t-19.17-41a104.44,104.44,0,0,1,12.9-61.5q19.27-34.93,54.13-38.15,24.81-2.28,38.4,15.59l2.06-15.79,36.8-3.39L475.46,359.15q-1.08,9.66-.82,12.45a7.55,7.55,0,0,0,2.08,5.08,5.07,5.07,0,0,0,4,1.39q6.69-.61,16.54-9.68,13.25-11.89,20.38-30.55A82.9,82.9,0,0,0,523,300.1Q519.88,265.8,492.94,245t-71.4-16.7q-37.77,3.47-62.63,21.29a98.21,98.21,0,0,0-35.6,47,134.3,134.3,0,0,0-8,59.42,100.55,100.55,0,0,0,19.76,52.17A86.71,86.71,0,0,0,380,439.55q27.86,8.61,62.42,5.43,33.32-3.06,56.44-14.53T534.94,399.09ZM379,355.65q1.63,17.72,9.58,25.41a22.59,22.59,0,0,0,18.54,6.73,30.21,30.21,0,0,0,14.56-5.28,36.86,36.86,0,0,0,9.64-9.74q6.62-9.18,10.48-26t2.57-30.88q-1.46-15.75-9.55-23.51a23.48,23.48,0,0,0-19.24-6.73q-12,1.09-21.31,11.31t-12.9,27.82Q377.78,342.42,379,355.65Z" fill="#514897"/><path d="M850.36,819c0-.85,0-1.71,0-2.6V298.16l-67.29-48.29-11-174.51L557.56,88.07,454.79,14.34c-2.16-1.64-20.2-14.3-42.77.5-4.17,2.74-46.83,32.61-126.8,88.78l.4.56L45.22,118.43l9.34,147.34L.06,304.11V816.2l-.06,0L.06,819v1.93H.13c.88,12.19,10.23,24.85,24.62,24.85l800.61.31h.29l.29,0c8.15-.7,22.78-6.93,24.31-25.14h.11ZM787.12,314.41h35.8l-34.23,25.15ZM836.81,321V802.28L522.36,552.15Zm-5.94-20.17h-44.6l-2.11-33.51ZM419.46,26.17c15.15-9.94,26.64-1.41,27.07-1.09l89.55,64.26-226,13.4C378.91,54.39,415.71,28.64,419.46,26.17Zm340,63.52,16.27,259.42L511.37,543.41l-63.63-50.62c-.76-.61-19-14.74-42.07.36-3.18,2.08-27.92,21.55-63.73,50L73.33,347.64,59.6,131.16ZM13.61,805.34V320.94L330.92,551.87C230.38,631.77,59.32,768.73,13.61,805.34ZM59.09,337.28,27.66,314.41h30Zm-2.31-36.43H28.25l27.31-19.22ZM825,832.53l-800.24-.32c-5.43,0-9.47-4.66-10.72-9.83l15-12H44v-12c139.78-111.94,360-288,369.08-293.87h0c14.42-9.45,25.09-1.93,26.2-1.09L808.46,797.05H796.33v13.29h17.49v-9l22.94,18.25C835.86,830.4,827.27,832.24,825,832.53Z"/><rect x="201.47" y="797.05" width="17.5" height="13.29"/><rect x="166.48" y="797.05" width="17.5" height="13.29"/><rect x="131.49" y="797.05" width="17.5" height="13.29"/><rect x="61.5" y="797.05" width="17.5" height="13.29"/><rect x="96.5" y="797.05" width="17.5" height="13.29"/><rect x="236.46" y="797.05" width="17.5" height="13.29"/><rect x="411.42" y="797.05" width="17.5" height="13.29"/><rect x="621.37" y="797.05" width="17.5" height="13.29"/><rect x="551.39" y="797.05" width="17.5" height="13.29"/><rect x="586.38" y="797.05" width="17.5" height="13.29"/><rect x="656.36" y="797.05" width="17.5" height="13.29"/><rect x="691.35" y="797.05" width="17.5" height="13.29"/><rect x="761.34" y="797.05" width="17.5" height="13.29"/><rect x="726.34" y="797.05" width="17.5" height="13.29"/><rect x="516.39" y="797.05" width="17.5" height="13.29"/><rect x="341.44" y="797.05" width="17.5" height="13.29"/><rect x="376.43" y="797.05" width="17.5" height="13.29"/><rect x="306.45" y="797.05" width="17.5" height="13.29"/><rect x="271.45" y="797.05" width="17.5" height="13.29"/><rect x="481.4" y="797.05" width="17.5" height="13.29"/><rect x="446.41" y="797.05" width="17.5" height="13.29"/></g></svg>
